fonts/xavani/uni0041.svg

<svg width="500" height="850" xmlns="http://www.w3.org/2000/svg">
    <path
        d="M -336.10352 32.353516 L -390.2207 86.470703 L -390.22461 86.470703 L -403.75391 100 L -444.34375 140.58984 L -457.87305 154.11914 L -457.87305 173.25586 L -444.34375 186.78516 L -425.21094 186.78516 L -411.67969 173.25586 L -411.67969 173.25391 L -380.6582 142.22852 L -259.56836 263.31836 L -240.43164 263.31836 L -226.90234 249.79297 L -226.90234 230.6543 L -347.99414 109.56445 L -316.97266 78.544922 L -183.0293 78.544922 L -183.0293 78.546875 L -88.320312 173.25391 L -88.320312 173.25586 L -74.791016 186.78516 L -55.654297 186.78516 L -42.128906 173.25586 L -42.128906 154.11914 L -55.658203 140.58984 L -163.89844 32.353516 L -336.10352 32.353516 z " />
</svg>

<svg width="500" height="850" xmlns="http://www.w3.org/2000/svg">
    <path
        d="M -336.104,32.354 -390.22,86.47 h -0.004 l -13.53,13.53 -40.59,40.59 -13.529,13.53 v 19.135 l 13.53,13.531 h 19.132 l 13.531,-13.531 v -0.002 l 31.022,-31.024 121.09,121.09 h 19.136 l 13.53,-13.527 v -19.137 l -121.092,-121.09 31.021,-31.021 h 133.944 v 0.002 l 94.709,94.707 v 0.002 l 13.529,13.53 h 19.137 l 13.525,-13.53 V 154.12 l -13.53,-13.53 -108.24,-108.237 z" />
</svg>
